logos/gatsby.svg

<?xml version="1.0" encoding="UTF-8"?>
<svg width="256px" height="256px" viewBox="0 0 256 256" version="1.1" xmlns="http://www.w3.org/2000/svg" xmlns:xlink="http://www.w3.org/1999/xlink" preserveAspectRatio="xMidYMid">
    <g>
        <path d="M128,0 C57.3075981,0 0,57.307374 0,128 C0,198.69285 57.3078221,256 128,256 C198.69285,256 256,198.692626 256,128 C256,57.307374 198.69285,0 128,0 Z M27.503973,129.334313 L126.665463,228.496027 C72.2144512,227.786305 28.2134711,183.785325 27.503973,129.334313 Z M150.496265,225.983324 L30.0166761,105.503735 C40.2328216,60.8232766 80.2223482,27.4871709 128,27.4871709 C161.397489,27.4871709 190.984927,43.7800881 209.262736,68.8464075 L195.346089,81.125855 C180.519662,59.8637627 155.886614,45.9486835 128,45.9486835 C92.4948508,45.9486835 62.259523,68.5011796 50.8311596,100.061636 L155.938588,205.169064 C181.463942,195.925651 201.095107,174.378594 207.669894,147.692325 L164.102633,147.692325 L164.102633,128.000224 L210.051317,128.000224 L210.051317,127.999776 L228.512829,127.999776 L228.512829,128 C228.512829,175.777652 195.176947,215.767178 150.496265,225.983324 Z" fill="#744C9E" fill-rule="nonzero"></path>
    </g>
</svg>

<svg preserveAspectRatio="xMidYMid" viewBox="0 0 256 256" xmlns="http://www.w3.org/2000/svg">
  <path fill="#744C9E" d="M128 0C57.308 0 0 57.307 0 128s57.308 128 128 128c70.693 0 128-57.307 128-128S198.693 0 128 0ZM27.504 129.334l99.161 99.162c-54.45-.71-98.452-44.71-99.161-99.162Zm122.992 96.65-120.48-120.48C40.234 60.824 80.223 27.487 128 27.487c33.397 0 62.985 16.293 81.263 41.36l-13.917 12.279C180.52 59.864 155.886 45.949 128 45.949c-35.505 0-65.74 22.552-77.169 54.113L155.94 205.169c25.525-9.243 45.156-30.79 51.73-57.477h-43.566V128h64.41c0 47.778-33.336 87.767-78.017 97.983Z"/>
</svg>
